Sites/Bioaqua/app/img/dest/steps/image(1).svg

<svg width="97" height="119" viewBox="0 0 97 119" fill="none" xmlns="http://www.w3.org/2000/svg">
<path d="M12.1199 73.6884C5.30062 70.9126 4.24339 57.0999 6.22347 56.7924M12.1199 73.6884C10.9323 68.0453 10.6225 62.3025 11.1411 56.7924M12.1199 73.6884C14.4397 84.7107 20.1087 95.3528 29.4953 103.137M6.22347 56.7924C6.22347 56.7924 4.62945 49.354 6.22344 33.9457C6.48858 31.3827 7.21533 28.9667 8.32396 26.7197M6.22347 56.7924H11.1411M78.5892 26.7197C74.4979 17.9822 68.4154 12.8649 59.7805 10.3639C55.1835 9.03234 49.8631 8.44233 43.7346 8.44233C42.248 8.44233 40.7569 8.51403 39.2716 8.65456M11.1411 56.7924C12.7469 39.7328 22.2941 24.9044 38.3152 22.1742M11.1411 56.7924C15.312 50.4139 18.7232 50.1605 25.2176 49.0352C31.7119 47.9099 38.3152 41.8093 38.3152 41.8093M39.2716 8.65456C33.5333 13.0117 35.021 19.8126 38.3152 22.1742M39.2716 8.65456C35.4172 9.01925 31.6022 9.8475 28.0077 11.0893C27.0612 11.4162 32.6393 9.58895 31.7267 9.97232M38.3152 22.1742C40.0467 21.8791 41.8538 21.7253 43.7347 21.7253C61.4067 21.7253 72.5668 35.2995 75.6786 52.1168M43.7346 14.1806V17.581M80.0769 30.2265L81.3521 33.3081M81.9897 36.4961C81.9897 36.4961 81.9897 49.5138 81.9897 57.8551M81.9897 57.8551C85.5275 62.8239 78.3298 77.7406 75.2113 74.326M81.9897 57.8551C79.8137 57.8551 76.4177 57.8551 76.4177 57.8551M75.2113 74.326C75.2586 74.1136 75.3046 73.9011 75.3493 73.6884C76.4609 68.4071 76.8035 63.0385 76.4177 57.8551M75.2113 74.326C74.7788 76.2699 74.2415 78.2005 73.5976 80.104M76.4177 57.8551C76.273 55.9115 76.026 53.994 75.6786 52.1168M43.7347 26.7197C44.198 28.8283 44.3707 30.5051 44.2939 31.9267M40.4405 39.684C42.6776 37.0442 44.1208 35.1352 44.2939 31.9267M44.2939 31.9267C60.2799 33.5878 65.7854 40.2882 75.6786 52.1168M29.4953 103.137C33.5413 106.493 38.2779 109.317 43.7347 111.412C49.1915 109.317 53.928 106.493 57.974 103.137M29.4953 103.137C31.3945 111.735 31.3742 114.714 29.4953 116.938M57.974 103.137C56.5346 109.293 55.5241 112.853 57.974 116.938M57.974 103.137C59.9962 101.46 62.5898 98.8114 64.2707 96.8937M8.32396 26.7197C10.5499 22.2082 14.3154 18.378 18.9752 15.4074C20.9163 14.1699 29.5219 10.8986 31.7267 9.97232M8.32396 26.7197C8.32396 26.7197 0.00552944 26.3185 2.44951 17.1559C4.89349 7.99326 17.0942 2.00002 25.2171 2C31.3534 1.99998 31.7267 9.97232 31.7267 9.97232" stroke="#2F7271" stroke-width="4"/>
<path d="M76.7226 88.2863C76.7226 93.0505 72.8604 96.9127 68.0962 96.9127C63.332 96.9127 59.4698 93.0505 59.4698 88.2863C59.4698 83.5221 63.332 79.6599 68.0962 79.6599C72.8604 79.6599 76.7226 83.5221 76.7226 88.2863Z" stroke="#2F7271" stroke-width="4"/>
<circle cx="91.6868" cy="80.8479" r="3.3132" stroke="#2F7271" stroke-width="4"/>
<path d="M72.6846 110.071C72.6846 111.842 71.2488 113.278 69.4776 113.278C67.7065 113.278 66.2707 111.842 66.2707 110.071C66.2707 108.299 67.7065 106.864 69.4776 106.864C71.2488 106.864 72.6846 108.299 72.6846 110.071Z" stroke="#2F7271" stroke-width="4"/>
<path d="M70.7528 98.2752C77.66 110.177 89.6231 105.123 92.1119 98.2752C94.6006 91.4272 89.4552 80.6354 77.2357 83.6108" stroke="#2F7271" stroke-width="4"/>
<circle cx="87.755" cy="110.07" r="4.4821" stroke="#2F7271" stroke-width="4"/>
</svg>

<svg width="97" height="119" fill="none" xmlns="http://www.w3.org/2000/svg"><path d="M12.12 73.688C5.3 70.913 4.243 57.1 6.223 56.792m5.897 16.896a56.62 56.62 0 01-.979-16.896m.979 16.896c2.32 11.023 7.989 21.665 17.375 29.449M6.223 56.792s-1.594-7.438 0-22.846a21.183 21.183 0 012.101-7.226m-2.1 30.072h4.917M78.59 26.72c-4.091-8.738-10.174-13.855-18.808-16.356-4.597-1.332-9.918-1.922-16.046-1.922-1.487 0-2.978.072-4.463.213m-28.13 48.137c1.605-17.06 11.152-31.888 27.173-34.618M11.141 56.792c4.171-6.378 7.582-6.632 14.077-7.757 6.494-1.125 13.097-7.226 13.097-7.226m.957-33.154c-5.739 4.357-4.251 11.158-.957 13.52m.957-13.52a48.698 48.698 0 00-11.264 2.434c-.947.327 4.631-1.5 3.719-1.117m6.588 12.202a32.217 32.217 0 015.42-.449c17.672 0 28.832 13.575 31.944 30.392M43.735 14.18v3.4m36.342 12.646l1.275 3.081m.638 3.188v21.36m0 0c3.538 4.968-3.66 19.885-6.779 16.47m6.779-16.47h-5.572m-1.207 16.47a56.71 56.71 0 001.206-16.47m-1.206 16.47a55.974 55.974 0 01-1.613 5.778m2.82-22.249a53.293 53.293 0 00-.74-5.738M43.736 26.72c.463 2.108.636 3.785.559 5.207m-3.853 7.757c2.237-2.64 3.68-4.549 3.853-7.757m0 0c15.986 1.66 21.491 8.361 31.385 20.19m-46.184 51.02c4.046 3.356 8.783 6.18 14.24 8.275 5.456-2.095 10.193-4.919 14.239-8.275m-28.479 0c1.9 8.598 1.88 11.577 0 13.801m28.479-13.801c-1.44 6.156-2.45 9.716 0 13.801m0-13.801c2.022-1.677 4.616-4.326 6.297-6.243M8.324 26.72c2.226-4.512 5.991-8.342 10.651-11.313 1.941-1.237 10.547-4.508 12.752-5.435M8.324 26.72s-8.318-.401-5.874-9.564C4.893 7.993 17.094 2 25.217 2c6.136 0 6.51 7.972 6.51 7.972m44.996 78.314a8.626 8.626 0 11-17.253 0 8.626 8.626 0 0117.253 0z" stroke="#2F7271" stroke-width="4"/><circle cx="91.687" cy="80.848" r="3.313" stroke="#2F7271" stroke-width="4"/><path d="M72.685 110.071a3.207 3.207 0 11-6.415 0 3.207 3.207 0 016.415 0zm-1.932-11.796c6.907 11.902 18.87 6.848 21.359 0 2.489-6.848-2.657-17.64-14.876-14.664" stroke="#2F7271" stroke-width="4"/><circle cx="87.755" cy="110.07" r="4.482" stroke="#2F7271" stroke-width="4"/></svg>
